!!!COM: Corelli, Arcangelo
!!!OTL: 
!!!ONM: Opus 3, No. 11
!!!OMV: 2
!!!CDT: 1653/2/17/-1713/1/8/
!!!OCY: Italia
**kern	**kern	**kern	**kern
*clefC	*clefC	*clefG	*clefG
*k[b-]	*k[b-]	*k[b-]	*k[b-]
*d:	*d:	*d:	*d:
*M4/4	*M4/4	*M4/4	*M4/4
=1	=1	=1	=1
8G	8G	2r	4dd
8A	8A	.	.
8B-	8B-	.	4gg
8G	8G	.	.
8d	8d	4a	4ff#
8D	8D	.	.
8F#	8F#	4dd	4r
8D	8D	.	.
=2	=2	=2	=2
8G	8G	4b-	4dd
8A	8A	.	.
8B-	8B-	4r	4gg
8G	8G	.	.
8c	8c	4g	4ee-
8C	8C	.	.
8E-	8E-	4cc	4r
8C	8C	.	.
=3	=3	=3	=3
8F	8F	4a	4cc
8G	8G	.	.
8A	8A	4r	4ff
8F	8F	.	.
8B-	8B-	4f	2dd
8BB-	8BB-	.	.
8D	8D	[4b-	.
8BB-	8BB-	.	.
=4	=4	=4	=4
8F	8F	4b-]	2cc
8G	8G	.	.
8A	8A	2a	.
8F#	8F#	.	.
8G	8G	.	2b-
8A	8A	.	.
8B-	8B-	[4g	.
8c	8c	.	.
=5	=5	=5	=5
8d	8d	4g]	4a
8c	8c	.	.
8d	8d	4f#	4.dd
8D	8D	.	.
4.E-	8E-	4.g	.
.	8D	.	8g
.	8E-	.	[4cc
8C	8C	8a	.
=6	=6	=6	=6
8D	8D	8f#	4cc]
8D	8D	8d	.
8E-	8E-	2g	4b-
8BB-	8BB-	.	.
8C	8C	.	2a
8AA	8AA	.	.
8D	8D	4f#	.
8DD	8DD	.	.
=7	=7	=7	=7
8GG	8GG	8g	4g
8G	8G	8b-	.
8F#	8F#	4a	8r
8D	8D	.	8dd
8GG	8GG	8r	4b-
8G	8G	8b-	.
8F#	8F#	4a	8r
8D	8D	.	8dd
=8	=8	=8	=8
8GG	8GG	8r	4b-
8B-	8B-	8dd	.
8A	8A	4cc	8r
8F	8F	.	8ff
8BB-	8BB-	8r	4dd
8B-	8B-	8dd	.
8A	8A	4cc	8r
8F	8F	.	8ff
=9	=9	=9	=9
8BB-	8BB-	8r	4dd
8c	8c	8ee-	.
8B	8B	4dd	8r
8G	8G	.	8gg
8C	8C	8r	4ee-
8c	8c	8ee-	.
8B	8B	4dd	8r
8G	8G	.	8gg
=10	=10	=10	=10
4c	4c	8r	4ee-
.	.	8gg	.
4d	4d	8ff#	4.dd
.	.	8dd	.
2e-	2e-	4.gg	.
.	.	.	16cc
.	.	.	16b-
.	.	.	4cc
.	.	16aa	.
.	.	16gg	.
=11	=11	=11	=11
4.d	4.d	4ff#	4dd
.	.	4r	4.ddd
8c	8c	.	.
8B-	8B-	4.gg	.
8A	8A	.	8ccc
4G	4G	.	8bb-
.	.	8ff	8aa
=12	=12	=12	=12
4.c	4.c	8ee-	4gg
.	.	8dd	.
.	.	4cc	4.ccc
8B-	8B-	.	.
8A	8A	4.ff	.
8G	8G	.	8bb-
4F	4F	.	8aa
.	.	8ee-	8gg
=13	=13	=13	=13
4B-	4B-	8dd	4ff
.	.	8cc	.
8r	8r	4b-	4.bb-
8d	8d	.	.
4c	4c	4.ee-	.
.	.	.	16ccc
.	.	.	16bb-
4f	4f	.	[4aa
.	.	16ff	.
.	.	16ee-	.
=14	=14	=14	=14
4.B-	4.B-	4.dd	8aa]
.	.	.	8dd
.	.	.	4.gg
8e-	8e-	8g	.
4A	4A	4.cc	.
.	.	.	16aa
.	.	.	16gg
4d	4d	.	[4ff
.	.	16dd	.
.	.	16cc	.
=15	=15	=15	=15
4G	4G	4.b-	8ff]
.	.	.	8b-
4c	4c	.	8ee-
.	.	8ee-	8gg
4F	4F	8cc	8a
.	.	8a	8f
8r	8r	8dd	8b-
8D	8D	8ff	8dd
=16	=16	=16	=16
8E-	8E-	4ee-	8g
8F	8F	.	8a
8G	8G	4dd	2b-
8D	8D	.	.
8E-	8E-	2cc	.
8C	8C	.	.
8F	8F	.	4a
8FF	8FF	.	.
=17	=17	=17	=17
4BB-	4BB-	4.b-	8b-
.	.	.	8dd
8r	8r	.	2gg
8B-	8B-	8gg	.
8c	8c	4aa	.
8A	8A	.	.
8d	8d	[4aa	4ff#
8D	8D	.	.
=18	=18	=18	=18
4G	8G	8aa]	2bb-
.	8A	8dd	.
4GG	8B-	2gg	.
.	8c	.	.
4.D	8d	.	2aa
.	8D	.	.
.	8F	[4ff	.
8F	8D	.	.
=19	=19	=19	=19
4.G	8G	4ff]	8bb-
.	8A	.	8aa
.	8B-	8ee	2gg
8G	8G	8dd	.
4A	8A	8cc#	.
.	8G	8a	.
8r	8A	8r	4ff
8F	8F	8aa	.
=20	=20	=20	=20
8G	8G	8bb-	8ee-
8A	8A	8aa	8cc#
8B-	8B-	8gg	2dd
8F	8F	8ff	.
8G	8G	2ee	.
8E	8E	.	.
8A	8A	.	4cc#
8AA	8AA	.	.
=21	=21	=21	=21
8D	8D	2dd	4a
8E	8E	.	.
8F	8F	.	4dd
8D	8D	.	.
8A	8A	4ee	4cc#
8AA	8AA	.	.
8C#	8C#	4aa	4r
8AA	8AA	.	.
=22	=22	=22	=22
8D	8D	4ff	4a
8E	8E	.	.
8F	8F	4r	4dd
8D	8D	.	.
8G	8G	4dd	4b
8GG	8GG	.	.
8BB	8BB	4gg	4r
8GG	8GG	.	.
=23	=23	=23	=23
8C	8C	4ee-	4g
8D	8D	.	.
8E-	8E-	4r	4cc
8C	8C	.	.
8F	8F	4cc	4a
8FF	8FF	.	.
8AA	8AA	4ff	4r
8FF	8FF	.	.
=24	=24	=24	=24
8BB-	8BB-	2dd	4f
8C	8C	.	.
8D	8D	.	2b-
8BB-	8BB-	.	.
8F	8F	2cc	.
8G	8G	.	.
8A	8A	.	[4a
8F#	8F#	.	.
=25	=25	=25	=25
8G	8G	2b-	4a]
8A	8A	.	.
8B-	8B-	.	2g
8c	8c	.	.
8d	8d	4a	.
8c	8c	.	.
8d	8d	[4dd	4f#
8D	8D	.	.
=26	=26	=26	=26
8E-	8E-	4dd]	4g
8D	8D	.	.
8E-	8E-	2cc	4gg
8C	8C	.	.
4D	4D	.	4ff#
4r	4r	12b-	12dd
.	.	12cc	12ee-
.	.	12b-	12dd
=27	=27	=27	=27
2r	2r	12a	12cc
.	.	12b-	12dd
.	.	12a	12cc
.	.	12g	12b-
.	.	12a	12cc
.	.	12g	12b-
4D	4D	4f#	4a
4r	4r	12dd	12b-
.	.	12ee-	12cc
.	.	12dd	12b-
=28	=28	=28	=28
2r	2r	12cc	12a
.	.	12dd	12b-
.	.	12cc	12a
.	.	12b-	12g
.	.	12cc	12a
.	.	12b-	12g
4.D	4.D	4a	8f#
.	.	.	8a
.	.	8r	[4b-
8D	8D	8f#	.
=29	=29	=29	=29
8E-	8E-	4.g	8b-]
8D	8D	.	8b-
8E-	8E-	.	4.cc
8C	8C	8g	.
4.F	8F	4.a	.
.	8E-	.	8a
.	8F	.	[4dd
8D	8D	8a	.
=30	=30	=30	=30
8G	8G	4.b-	8dd]
8GG	8GG	.	8b-
8r	8r	.	4.ee-
8G	8G	8b-	.
8A	8A	4cc	.
8F	8F	.	16dd
.	.	.	16cc
8B-	8B-	8r	8dd
8D	8D	8ff	8ff
=31	=31	=31	=31
8E-	8E-	4ee-	8g
8F	8F	.	8a
8G	8G	4dd	2b-
8D	8D	.	.
8E-	8E-	2cc	.
8C	8C	.	.
8F	8F	.	4a
8FF	8FF	.	.
=32	=32	=32	=32
4BB-	4BB-	4b-	8b-
.	.	.	8dd
8r	8r	8r	4.gg
8B-	8B-	8dd	.
4.c	8c	4.ee	.
.	8B-	.	8ee
.	8c	.	[4aa
8A	8A	8ee	.
=33	=33	=33	=33
4.d	8d	4.ff#	8aa]
.	8c	.	8ff#
.	8d	.	4.bb-
8B-	8B-	8ff#	.
4.e-	8e-	4.gg	.
.	8d	.	8gg
.	8e-	.	[4ccc
8c	8c	8aa	.
=34	=34	=34	=34
4d	4d	8ff#	4ccc]
.	.	8dd	.
8r	8r	8gg	4bb-
8B-	8B-	8dd	.
8c	8c	4cc	8ee
8d	8d	.	8ff#
8e-	8e-	4b-	[4gg
8B-	8B-	.	.
=35	=35	=35	=35
8c	8c	4a	4gg]
8A	8A	.	.
8d	8d	4aa	2ff
8c	8c	.	.
8B-	8B-	2gg	.
8G	8G	.	.
8c	8c	.	[4ee-
8B-	8B-	.	.
=36	=36	=36	=36
8A	8A	2ff	4ee-]
8F	8F	.	.
8B-	8B-	.	2dd
8A	8A	.	.
8G	8G	2ee-	.
8B-	8B-	.	.
8A	8A	.	[4cc
8G	8G	.	.
=37	=37	=37	=37
8F#	8F#	4.dd	4cc]
8D	8D	.	.
8G	8G	.	4.b-
8BB-	8BB-	8dd	.
4.C	4.C	8ee-	.
.	.	8g	16cc
.	.	.	16dd
.	.	[4cc	8ee-
8C	8C	.	8g
=38	=38	=38	=38
2D	2D	4cc]	8f#
.	.	.	8d
.	.	4b-	2g
2DD	2DD	2a	.
.	.	.	4f#
=39	=39	=39	=39
1GG	1GG	1g	1g
==	==	==	==
*-	*-	*-	*-
!!!RWG: This file only contains pitch and duration data.
!!!RWG: Transposing instruments are not transposed.
!!!RWG: Durations of rests and tied notes may be interpreted.
!!!RWG: Key is interpreted using the Humdrum key tool.
!!!SCA: 
!!!YOR: Chrysander Edition
!!!AGN: chamber
!!!AFT: stage1
!!!ENC: F. Bennion
!!!END: 1997/04/15
!!!AST: baroque
!!!YEC: Copyright 1994, Center for Computer Assisted Research in the Humanities
!!!YEM: Rights to all derivative electronic formats reserved.
!!!YEM: Refer to licensing agreement for further details.
!!!YEN: United States of America
!!!EED: W.B. Hewlett
!!!KEY: 3314986354
!!!EMD: Converted from MuseData to Humdrum Aug 9, 1999, by Bret Aarden using muse2kern.
!!!VTS: 3083897909
